ic16/ic16__order-type--pick-up.svg

<svg fill="none" height="16" width="16" xmlns="http://www.w3.org/2000/svg"><path d="m5.997 4.333h-1.337v-1.017c0-.7.207-1.257.62-1.671.415-.43.956-.645 1.625-.645h2.208c.668 0 1.202.215 1.6.645.413.414.62.97.62 1.671v1.017h1.45c.366 0 .66.112.884.335.223.223.334.517.334.883v7.231c0 .366-.111.66-.334.884-.223.223-.518.334-.884.334h-1.45v-9.667h-1.313v9.667h-4.023zm4.023-1.04c0-.35-.088-.621-.263-.812-.175-.207-.422-.31-.74-.31h-2.017c-.318 0-.565.103-.74.31-.175.19-.263.461-.263.812v1.04h4.023zm-6.826 10.707c-.366 0-.66-.111-.883-.334-.207-.223-.31-.518-.31-.884v-7.23c0-.367.103-.661.31-.884.222-.223.517-.335.883-.335h1.466v9.667z"/><path d="m4.66 14h1.337v-7h-1.337zm5.36 0h1.313v-7h-1.313zm-4.023-9.667h-1.337v1.307h1.337zm5.336 0h-1.313v1.307h1.313z"/></svg>

<svg width="16" height="16" viewBox="0 0 16 16" fill="none" xmlns="http://www.w3.org/2000/svg">
  <path d="M5.997 4.333H4.66V3.316c0-.7.207-1.257.62-1.671.415-.43.956-.645 1.625-.645h2.208c.668 0 1.202.215 1.6.645.413.414.62.97.62 1.671v1.017h1.45c.366 0 .66.112.884.335.223.223.334.517.334.883v7.231c0 .366-.111.66-.334.884-.223.223-.518.334-.884.334h-1.45V4.333H10.02V14H5.997V4.333zm4.023-1.04c0-.35-.088-.621-.263-.812-.175-.207-.422-.31-.74-.31H7c-.318 0-.565.103-.74.31-.175.19-.263.461-.263.812v1.04h4.023v-1.04zM3.194 14c-.366 0-.66-.111-.883-.334-.207-.223-.31-.518-.31-.884v-7.23c0-.367.103-.661.31-.884.222-.223.517-.335.883-.335H4.66V14H3.194z" />
  <path d="M4.66 14h1.337V7H4.66v7zm5.36 0h1.313V7H10.02v7zM5.997 4.333H4.66V5.64h1.337V4.333zm5.336 0H10.02V5.64h1.313V4.333z" />
</svg>
